packages/kaspersky-hexa-ui-icons/src/iconsSVGs/16/HeartSolid.svg

<svg width="16" height="16" viewBox="0 0 16 16" fill="none" xmlns="http://www.w3.org/2000/svg">
<path fill-rule="evenodd" clip-rule="evenodd" d="M7.87383 2.99575C7.60938 2.73804 7.24865 2.44876 6.7924 2.22059C5.8562 1.7524 4.56923 1.56993 3.01622 2.32583C2.99872 2.33435 2.98161 2.34365 2.96494 2.3537C2.23052 2.79675 1.69996 3.32095 1.3648 3.98838C1.03419 4.64675 0.923828 5.38525 0.923828 6.20422C0.923828 7.21185 1.36208 8.19011 1.94618 9.05707C2.53544 9.93171 3.31395 10.7533 4.08789 11.4612C5.63655 12.8778 7.24123 13.9062 7.49529 14.0662C7.62562 14.1483 7.77392 14.1784 7.91588 14.162C8.03367 14.1616 8.15275 14.1291 8.2597 14.0616C8.53628 13.887 10.1393 12.856 11.6807 11.4421C12.451 10.7354 13.2244 9.91658 13.8094 9.04523C14.3894 8.18141 14.8238 7.20742 14.8238 6.20423C14.8238 5.38609 14.7157 4.65598 14.3851 4.00123C14.051 3.33927 13.5222 2.81808 12.7927 2.35987C12.7729 2.34743 12.7525 2.33606 12.7314 2.32583C11.1697 1.5657 9.8775 1.75462 8.9406 2.22796C8.49135 2.45493 8.13551 2.74074 7.87383 2.99575Z" fill="black"/>
</svg>

<svg xmlns="http://www.w3.org/2000/svg" width="16" height="16" fill="none" viewBox="0 0 16 16"><path fill="#000" fill-rule="evenodd" d="M7.8738 2.9958c-.2644-.2578-.6252-.547-1.0814-.7752-.9362-.4682-2.2232-.6507-3.7762.1052a.7.7 0 0 0-.0513.0279c-.7344.443-1.265.9673-1.6001 1.6347-.3306.6584-.441 1.3969-.441 2.2158 0 1.0077.4383 1.986 1.0224 2.8529.5892.8746 1.3678 1.6962 2.1417 2.4041 1.5486 1.4166 3.1533 2.445 3.4074 2.605a.647.647 0 0 0 .4206.0958.647.647 0 0 0 .3438-.1004c.2766-.1746 1.8796-1.2056 3.421-2.6195.7703-.7067 1.5437-1.5255 2.1287-2.3969.58-.8638 1.0144-1.8378 1.0144-2.841 0-.8181-.1081-1.5482-.4387-2.203-.3341-.662-.8629-1.1831-1.5924-1.6413a.6.6 0 0 0-.0613-.034c-1.5617-.7602-2.8539-.5713-3.7908-.098-.4492.227-.805.5128-1.0668.7679"/></svg>
